img/icons/tree.svg

<svg width="18" height="18" viewBox="0 0 18 18" fill="none" xmlns="http://www.w3.org/2000/svg">
<path d="M16.5048 5.32879C16.5048 3.96304 15.4545 2.8397 14.1074 2.70173C13.7293 1.69566 12.7509 0.977184 11.5994 0.977184C11.0954 0.977184 10.6257 1.1172 10.2233 1.35611C9.76576 0.547527 8.89106 0 7.88568 0C6.55278 0 5.45043 0.962603 5.24587 2.22101C5.13709 2.20789 5.02713 2.19883 4.91479 2.19883C3.43643 2.19883 2.23772 3.3814 2.23772 4.84047C2.23772 4.91194 2.24304 4.98195 2.24867 5.05196C1.49901 5.52014 1 6.34331 1 7.28346C1 8.11453 1.38964 8.85484 1.99768 9.33907C1.99502 9.38663 1.99029 9.43385 1.99029 9.48202C1.99029 10.9408 3.18872 12.1237 4.66735 12.1237C5.11047 12.1237 5.52728 12.0157 5.89534 11.8279C6.40526 12.1893 7.13544 12.6414 7.48897 12.5513C7.48897 12.5513 7.62051 14.5617 7.59213 15.0722C7.53803 16.0436 7.24271 17.1249 7.03491 18H10.2536C10.2536 18 9.77909 16.0491 9.75838 15.3977C9.73769 14.7463 9.96472 13.5469 9.96472 13.5469L11.0813 12.4072C11.5111 12.6972 12.0302 12.862 12.5901 12.862C13.9741 12.862 15.1125 11.8229 15.2524 10.4936C16.2719 10.1206 17 9.15242 17 8.01624C17 7.34532 16.7446 6.73508 16.3272 6.26897C16.4401 5.97664 16.5048 5.66046 16.5048 5.32879ZM6.51373 11.3918C6.72834 11.1896 6.90838 10.9533 7.04582 10.6911L7.57142 11.7777C7.57114 11.7777 7.28528 11.9023 6.51373 11.3918ZM8.47898 12.0627C8.207 12.1114 7.74379 11.285 7.41505 10.6132C7.77956 10.7967 8.19105 10.9023 8.62854 10.9023C8.74088 10.9023 8.85115 10.8933 8.95994 10.8798C8.87539 11.4174 8.72641 12.018 8.47898 12.0627ZM9.63453 12.5915C9.00544 12.7639 9.38206 11.4781 9.56238 10.7337C9.69278 10.6859 9.819 10.6296 9.939 10.5627C10.0114 11.1053 10.2503 11.5948 10.6041 11.9818C10.2976 12.2506 9.9446 12.5066 9.63453 12.5915Z" fill="white"/>
</svg>

<svg width="18" height="18" viewBox="0 0 18 18" fill="none" xmlns="http://www.w3.org/2000/svg"><path d="M16.505 5.329c0-1.366-1.05-2.49-2.398-2.627A2.674 2.674 0 0 0 11.6.977c-.504 0-.973.14-1.376.38A2.68 2.68 0 0 0 7.886 0a2.665 2.665 0 0 0-2.64 2.221 2.756 2.756 0 0 0-.331-.022c-1.479 0-2.677 1.182-2.677 2.641 0 .072.005.142.01.212A2.63 2.63 0 0 0 1 7.283c0 .832.39 1.572.998 2.056-.003.048-.008.095-.008.143 0 1.459 1.199 2.642 2.677 2.642.443 0 .86-.108 1.228-.296.51.361 1.24.813 1.594.723 0 0 .132 2.01.103 2.521-.054.972-.35 2.053-.557 2.928h3.219s-.475-1.95-.496-2.602c-.02-.652.207-1.851.207-1.851l1.116-1.14c.43.29.95.455 1.51.455 1.383 0 2.522-1.04 2.661-2.368A2.645 2.645 0 0 0 17 8.016a2.61 2.61 0 0 0-.673-1.747c.113-.292.178-.609.178-.94Zm-9.991 6.063c.214-.202.394-.439.532-.7l.525 1.086s-.286.124-1.057-.386Zm1.965.67c-.272.05-.735-.777-1.064-1.449a2.69 2.69 0 0 0 1.545.267c-.085.537-.234 1.138-.481 1.183Zm1.156.53c-.63.172-.253-1.114-.073-1.858a2.67 2.67 0 0 0 .377-.171 2.61 2.61 0 0 0 .665 1.419c-.306.269-.66.525-.97.61Z" fill="#fff"/></svg>
